X: 31984
T: Peddler's Lake
R: jig
M: 6/8
K: Gmajor
GDG ABd|dBe dBA|~G3 GBd|edB ~A3|
GDG ABd|dBe def|g2z ~e3|dB/A/G ABd:|
dBd e2d|dB/A/G ABd|dBd e2d|dBG A2d|
dBd e2d|dB/A/G ABd|g2z ~e3|dB/A/G FAd:|

